resources/svg/solid/user-check.svg

<svg xmlns="http://www.w3.org/2000/svg" fill="currentColor" stroke="none" viewBox="0 0 24 24"><path d="M8 12.052c1.995 0 3.5-1.505 3.5-3.5s-1.505-3.5-3.5-3.5-3.5 1.505-3.5 3.5 1.505 3.5 3.5 3.5zM9 13H7c-2.757 0-5 2.243-5 5v1h12v-1c0-2.757-2.243-5-5-5zm11.294-4.708-4.3 4.292-1.292-1.292-1.414 1.414 2.706 2.704 5.712-5.702z"/></svg>

<svg xmlns="http://www.w3.org/2000/svg" fill="currentColor" stroke="none" viewBox="0 0 24 24"><path d="M8 12.052c1.995 0 3.5-1.505 3.5-3.5s-1.505-3.5-3.5-3.5-3.5 1.505-3.5 3.5S6.005 12.052 8 12.052zM9 13H7c-2.757 0-5 2.243-5 5v1h1 1 8 1 1v-1C14 15.243 11.757 13 9 13zM20.294 8.292L15.994 12.584 14.702 11.292 13.288 12.706 15.994 15.41 21.706 9.708z"/></svg>
